!!!COM: Palestrina, Giovanni Perluigi da
!!!OPR: Missa O magnum mysterium
!!!OMD: Gloria
!!!OTL: coda
**kern	**kern	**kern	**kern	**kern
*Ibass	*Itenor	*Icalto	*Icalto	*Icant
!Bassus	!Tenor	!Altus 2	!Altus 1	!Cantus
*clefF4	*clefGv2	*clefG2	*clefG2	*clefG2
*k[]	*k[]	*k[]	*k[]	*k[]
*E:phr	*E:phr	*E:phr	*E:phr	*E:phr
*M4/2	*M4/2	*M4/2	*M4/2	*M4/2
=124	=124	=124	=124	=124
1C	2c	2g	1e	2r
.	2c	2e	.	2g
1r	2F	2f	1c	2a
.	2A	2e	.	2a
=125	=125	=125	=125	=125
0r	1G	1g	2d	4b
.	.	.	.	4cc
.	.	.	2d	4dd
.	.	.	.	4b
.	1r	2r	4e	2cc
.	.	.	4f	.
.	.	2e	4g	[2b
.	.	.	4e	.
=126	=126	=126	=126	=126
0r	2r	2.A	2f	4b]
.	.	.	.	4a
.	2c	.	2.e	1a
.	.	4c	.	.
.	2d	1B	.	.
.	.	.	4d	.
.	2d	.	[2d	2g#
=127	=127	=127	=127	=127
2r	1e	1A	2d]	2a
2A	.	.	2c	2e
2D	4d	1r	2B	2f
.	4c	.	.	.
2F	4B	.	[2A	2d
.	4A	.	.	.
=128	=128	=128	=128	=128
1E	1B	1r	2A]	1e
.	.	.	2G#	.
2.F	2A	2r	1A	2.a
.	[2c	2c	.	.
4E	.	.	.	4g
=129	=129	=129	=129	=129
1D	2c]	2d	1r	2f
.	2B	2d	.	2d
1C	2.c	4e	2r	1g
.	.	4f	.	.
.	.	4g	2c	.
.	4B	4e	.	.
=130	=130	=130	=130	=130
2D	2.A	2f	2F	1r
2AA	.	1e	2A	.
.	8G	.	.	.
.	8F	.	.	.
2C	4E	.	1G	2r
.	4F	.	.	.
2BB	[2G	2d	.	2g
=131	=131	=131	=131	=131
1AA	4G]	1c	2r	2a
.	4F#	.	.	.
.	4F#	.	2c	2a
.	4E	.	.	.
1GG	1G	2B	2d	4b
.	.	.	.	4cc
.	.	2g	2d	4dd
.	.	.	.	4b
=132	=132	=132	=132	=132
0r	0r	2c	4e	2cc
.	.	.	4f	.
.	.	2e	4g	2.b
.	.	.	4e	.
.	.	2d	2f	.
.	.	.	.	4a
.	.	[2g	2e	2cc
=133	=133	=133	=133	=133
1r	0r	2g]	1d	2b
.	.	2f	.	2.a
2r	.	2d	2B	.
.	.	.	.	4g
2C	.	2e	2c	[2g
=134	=134	=134	=134	=134
2D	1r	1d	1A	4g]
.	.	.	.	4f#
2D	.	.	.	4f#
.	.	.	.	8e
.	.	.	.	8f#
4E	2r	1B	2G	1g
4F	.	.	.	.
4G	2G	.	2g	.
4E	.	.	.	.
=135	=135	=135	=135	=135
4F	2A	2r	2f	1c
4G	.	.	.	.
2A	2A	2c	2e	.
1G	4B	2d	[1g	1r
.	4c	.	.	.
.	4d	2d	.	.
.	4B	.	.	.
=136	=136	=136	=136	=136
1E	2c	4e	1g]	2r
.	.	4f	.	.
.	2.B	4g	.	2g
.	.	4e	.	.
2D	.	2f	2r	2a
.	4A	.	.	.
2C	[2A	2e	2c	2a
=137	=137	=137	=137	=137
1BB	4A]	1d	2d	4b
.	4G#	.	.	4cc
.	4G#	.	2d	4dd
.	4F#	.	.	4b
2AA	1A	4.c	1e	2cc
.	.	8B	.	.
4AA	.	[2A	.	[2cc
4BB	.	.	.	.
=138	=138	=138	=138	=138
4C	1E	2A]	1.e	2cc]
4D	.	.	.	.
2E	.	2G#	.	1b
1AA	1c	1A	.	.
.	.	.	2e	[2a
=139	=139	=139	=139	=139
1E	1B	1B	1e	2a]
.	.	.	.	2g#
[1AA	2A	[1c	1e	[1a
.	2E	.	.	.
=140	=140	=140	=140	=140
1AA]	0A	0c]	0e	0a]
1AA	.	.	.	.
=141	=141	=141	=141	=141
[0E	[0G#	[0B	[0e	[0b
=142	=142	=142	=142	=142
0E]	0G#]	0B]	0e]	0b]
==	==	==	==	==
*-	*-	*-	*-	*-
!!!CDT: 1525/^1526/-1594/2/2
!!!OCY: Italia
!!!AGN: Mass (Parody)
!!!AST: renaissance, vocal
!!!ASW: Motet 1569 (Palestrina)
!!!PWK: Masses, Book 4
!!!RNB: Cadence finals: A,C,G,F
!!!YOR: Le Opere Complete, v. 10, p. 150
!!!YOO: Rome, Italy: Fratelli Scalera
!!!END: 1992//
!!!EED: John Miller
!!!YEC: Copyright 2000, John Miller
!!!YEN: United States of America
!!!YEM: Rights to all derivative electronic formats reserved.
!!!YEM: Refer to licensing agreement for further details.
!!!YEM: This file must be accompanied by the licensing agreement.
!!!YEM: A copy of the licensing agreement may be found at http://www.music-cog.ohio-state.edu/HumdrumDatabases/Palestrina/license.txt
!!!EMD: converted to Humdrum by Bret Aarden
